src/images/icon/icon_invisible.svg

<svg height="20" viewBox="0 0 20 20" width="20" xmlns="http://www.w3.org/2000/svg"><g fill="none" fill-rule="evenodd"><path d="m3.65903327 6.48854487 2.07512721 2.07492525c-.15185713.4511206-.23416048.93421375-.23416048 1.43652988 0 2.4852814 2.01471863 4.5 4.5 4.5.5023161 0 .9854093-.0823034 1.4365299-.2341605l1.2800138 1.2797804c-.8571411.2843559-1.7697698.4543801-2.7165437.4543801-4.97056275 0-9-4.6862915-9-6 0-.65993996 1.01684611-2.17096599 2.65903327-3.51145513zm10.00921303 6.11859553 1.6538665 1.654693c-.4232387.2799775-.8746618.5410931-1.349724.7714866l-1.3652484-1.3650737c.4100856-.2919865.7691194-.6510203 1.0611059-1.0611059zm-3.6682463-8.6071404c4.9705627 0 9 4.6862915 9 6 0 .65994-1.0168461 2.170966-2.6590333 3.5114551l-2.0751272-2.0749252c.1518571-.4511206.2341605-.9342138.2341605-1.4365299 0-2.48528137-2.0147186-4.5-4.5-4.5-.50231613 0-.98540928.08230335-1.43652988.23416048l-1.28001386-1.27978041c.85714117-.28435589 1.76976988-.45438007 2.71654374-.45438007zm-2.995 5.834 3.1603314 3.1615214c-.054733.0029729-.1098564.0044786-.1653314.0044786-1.65685425 0-3-1.3431458-3-3zm1.4711292-2.41869755 4.1085684 4.10856835c-.2583446.4372445-.624477.80324-1.0618305 1.0614196l-4.10815745-4.10815745c.25817957-.43735353.62417503-.80348598 1.06141955-1.0618305zm1.5238708-.41530245c1.6568542 0 3 1.34314575 3 3l-.006.166-3.16038272-3.16146414c.05507845-.00301078.11055248-.00453586.16638272-.00453586zm-3.97338743-2.03283567 1.36624702 1.36458934c-.41008559.29198653-.76911939.65102033-1.06110592 1.06110592l-1.6538665-1.65469295c.42294215-.27978131.87402914-.54072723 1.3487254-.77100231z" fill="#b6c2cd"/><path d="m9.25 1h1.5v18h-1.5z" fill="#36435c" transform="matrix(.70710678 -.70710678 .70710678 .70710678 -4.142136 10)"/></g></svg>

<?xml version="1.0" encoding="UTF-8"?>
<svg width="20px" height="20px" viewBox="0 0 20 20" version="1.1" xmlns="http://www.w3.org/2000/svg" xmlns:xlink="http://www.w3.org/1999/xlink">
    
    <g id="Dashboard" stroke="none" stroke-width="1" fill="none" fill-rule="evenodd">
        <g id="00-Menu-交互备份" transform="translate(-539.000000, -299.000000)">
            <g id="编组-8" transform="translate(539.000000, 299.000000)">
                <path d="M3.65903327,6.48854487 L5.73416048,8.56347012 C5.58230335,9.01459072 5.5,9.49768387 5.5,10 C5.5,12.4852814 7.51471863,14.5 10,14.5 C10.5023161,14.5 10.9854093,14.4176966 11.4365299,14.2658395 L12.7165437,15.5456199 C11.8594026,15.8299758 10.9467739,16 10,16 C5.02943725,16 1,11.3137085 1,10 C1,9.34006004 2.01684611,7.82903401 3.65903327,6.48854487 Z M13.6682463,12.6071404 L15.3221128,14.2618334 C14.8988741,14.5418109 14.447451,14.8029265 13.9723888,15.03332 L12.6071404,13.6682463 C13.017226,13.3762598 13.3762598,13.017226 13.6682463,12.6071404 Z M10,4 C14.9705627,4 19,8.6862915 19,10 C19,10.65994 17.9831539,12.170966 16.3409667,13.5114551 L14.2658395,11.4365299 C14.4176966,10.9854093 14.5,10.5023161 14.5,10 C14.5,7.51471863 12.4852814,5.5 10,5.5 C9.49768387,5.5 9.01459072,5.58230335 8.56347012,5.73416048 L7.28345626,4.45438007 C8.14059743,4.17002418 9.05322614,4 10,4 Z M7.005,9.834 L10.1653314,12.9955214 C10.1105984,12.9984943 10.055475,13 10,13 C8.34314575,13 7,11.6568542 7,10 L7.005,9.834 Z M8.4761292,7.41530245 L12.5846976,11.5238708 C12.326353,11.9611153 11.9602206,12.3271108 11.5228671,12.5852904 L7.41470965,8.47713295 C7.67288922,8.03977942 8.03888468,7.67364697 8.4761292,7.41530245 Z M10,7 C11.6568542,7 13,8.34314575 13,10 L12.994,10.166 L9.83361728,7.00453586 C9.88869573,7.00152508 9.94416976,7 10,7 Z M6.02661257,4.96716433 L7.39285959,6.33175367 C6.982774,6.6237402 6.6237402,6.982774 6.33175367,7.39285959 L4.67788717,5.73816664 C5.10082932,5.45838533 5.55191631,5.19743941 6.02661257,4.96716433 Z" id="形状结合" fill="#B6C2CD"></path>
                <rect id="矩形" fill="#36435C" transform="translate(10.000000, 10.000000) rotate(-45.000000) translate(-10.000000, -10.000000) " x="9.25" y="1" width="1.5" height="18"></rect>
            </g>
        </g>
    </g>
</svg>
